!!!OTL-incipit: ES WAR EINMAL EIN GAERTNER, DER SANG EIN TRAURIG LIED
!!!ARE: Europa, Mitteleuropa, Deutschland, Schwaben
!!!SCT: Z0190
!!!TXL: @@DE
!!!YEM: Copyright 1995, estate of Helmut Schaffrath.
**kern	**text
*ICvox	*
*M4/4	*
*met(c)	*
*k[b-]	*
*F:	*
=1	=1
!LO:TX:a:t=Schwäbiſch.	!
!LO:TX:a:t=Gärtnerlied.	!
4r	.
{4cc	Es
4cc	war
4ff	ein-
=2	=2
4dd	-mal
8cc	.
8b-	ein
4b-/	Gärt-
4a	-ner,
=3	=3
4r}	.
{4cc	der
4cc	ſang
4ff	ein
=4	=4
4dd	trau-
8cc	.
8b-	-rig
(4b-/	Lied.
4a)	.
=5	=5
4r}	.
{4cc	Er
4ff	that
4ff	in
=6	=6
4ff	ſei-
8ee	.
8dd	-nem
8ddL	Gar-
8ccJ	.
8ccL}	-ten
{8ccJ	die
=7	=7
4.dd	Blu-
8dd	-men
4dd	flei-
8cc	.
8b-	-ßig
=8	=8
8b-L	war-
8aJ	.
8a	-ten,
8a	und
(4a	all
4ff	.
=9	=9
4.cc)	.
8b-	ſein
4b-	Fleiß
4a	.
=10	=10
8b-L	ge-
8a	.
8g	.
8aJ	.
4.g	-rieth.
8r}	.
==	==
!!!AGN: Staende -, Gaertner - Lied; Romanze, Tod; 264-5 muss ueberprueft werden! ++
!!!ONB: ESAC (Essen Associative Code) Database: ZUCCAL
!!!AMT: simple quadruple
!!!AIN: vox
!!!EED: Helmut Schaffrath
!!!EEV: 1.0
!!!GTL: III. Soldaten-, Jaeger-, Schiffer-, Fuhrmanns- und Handwerks-Lieder.
!!!URL-scan: https://www.digitale-sammlungen.de/de/view/bsb11160571?page=352
!!!ENC: Anna Maria Matuszewska
!!!EEV: 2025/01/28
*-	*-
